X: 1
T: the Arran Boat Song
R: air, waltz
O: 1880
O: Kerr's ca.1880
S: Hand-written MS from Highland Whisky collection
N: The second part is sometimes repeated, sometimes not.
M: 6/8
L: 1/8
K: Edor
"^A"[|]z | "Em"E>FE B>cd    | "D"A<FD    A<FD | "Em"E>FE "(G)"B>cd | "D"A<FD  "Em"E2 :|
"^B"[|]B | "Em"e>fe {f}g>fe | "G"d>BG "D"A>FD | "Em"e>fe      g>fe | "Bm"d>Bd "Em"e2 ||
       B | "Em"e>fe {f}g>fe | "G"d>BG "D"A>FD | "Em"E>FE  "G" B>cd | "D"A<FD  "Em"E2 |]
%%text The 2nd part is sometimes repeated.
